src/assets/skills/typescript.svg

<svg width="479" height="479" viewBox="0 0 479 479" fill="none" xmlns="http://www.w3.org/2000/svg">
<path d="M0 239.5V479H479V0H0V239.5ZM386 220.5C398.2 223.5 407.5 228.9 416 237.7C420.4 242.4 427 251 427.4 253C427.6 253.6 406.8 267.6 394.1 275.5C393.7 275.8 391.9 273.8 389.8 270.8C383.6 261.8 377.2 257.9 367.3 257.2C352.8 256.2 343.3 263.8 343.5 276.5C343.5 280.3 344 282.5 345.5 285.5C348.7 292.1 354.7 296.1 373.3 304.1C407.6 318.9 422.3 328.6 431.3 342.5C436.428 351.24 439.587 360.994 440.554 371.081C441.521 381.168 440.274 391.345 436.9 400.9C429.3 420.8 410.5 434.3 383.9 438.8C371.797 440.175 359.57 440.041 347.5 438.4C328.937 435.366 311.834 426.464 298.7 413C293.731 407.416 289.527 401.194 286.2 394.5L290.7 391.7L308.5 381.5L322.2 373.5L325.2 377.8C329.2 383.9 338 392.4 343.2 395.2C358.6 403.2 379.6 402.1 389.9 392.8C394.3 388.8 396.1 384.6 396.1 378.4C396.1 372.9 395.4 370.4 392.6 366.3C388.8 361 381.2 356.5 359.6 347.1C334.9 336.5 324.3 329.9 314.6 319.4C308.9 313.3 303.6 303.6 301.4 295.4C299.474 285.347 299.17 275.05 300.5 264.9C305.6 240.9 323.7 224.3 349.7 219.4C358.1 217.8 377.7 218.4 386 220.4V220.5ZM273.6 240.5L273.7 260H211.4V437.2H167.3V260H104.9V240.8L105.5 221C105.7 220.7 143.6 220.6 189.6 220.6L273.3 220.9L273.6 240.4V240.5Z" fill="#007ACC"/>
</svg>

<svg width="479" height="479" fill="none" xmlns="http://www.w3.org/2000/svg"><path d="M0 239.5V479h479V0H0v239.5Zm386-19c12.2 3 21.5 8.4 30 17.2a74 74 0 0 1 11.4 15.3c.2.6-20.6 14.6-33.3 22.5-.4.3-2.2-1.7-4.3-4.7-6.2-9-12.6-12.9-22.5-13.6-14.5-1-24 6.6-23.8 19.3 0 3.8.5 6 2 9 3.2 6.6 9.2 10.6 27.8 18.6 34.3 14.8 49 24.5 58 38.4a69.6 69.6 0 0 1 5.6 58.4c-7.6 19.9-26.4 33.4-53 37.9a147 147 0 0 1-36.4-.4 88 88 0 0 1-48.8-25.4c-5-5.6-9.2-11.8-12.5-18.5l4.5-2.8 17.8-10.2 13.7-8 3 4.3c4 6.1 12.8 14.6 18 17.4 15.4 8 36.4 6.9 46.7-2.4 4.4-4 6.2-8.2 6.2-14.4 0-5.5-.7-8-3.5-12.1-3.8-5.3-11.4-9.8-33-19.2-24.7-10.6-35.3-17.2-45-27.7a62 62 0 0 1-13.2-24c-2-10-2.2-20.3-.9-30.5 5.1-24 23.2-40.6 49.2-45.5 8.4-1.6 28-1 36.3 1v.1Zm-112.4 20 .1 19.5h-62.3v177.2h-44.1V260h-62.4v-19.2l.6-19.8c.2-.3 38.1-.4 84.1-.4l83.7.3.3 19.5v.1Z" fill="#007ACC"/></svg>
